X: 1
T:the Rake's Hornpipe
M:3/2
L:1/8
K:D
P:1
d4 EFED C2 A,2 | C2 E4 C2 A,2 C2 | d4 EFED C2 A,2 | C2 E4 C2 D4 ||
P:2
d4 ef g2 fg a2 | c2 e4   f2 g4 | f3 e ^d2 B2 e2 A2 |A6 ^G2 A4 |
F4 =G3 A B2 E2 | C3 D E2 F2 G4 | F3 G A2  F2 B2 E2 |E6  D2 D4 |]
